assets/laptop.svg

<?xml version="1.0" encoding="UTF-8"?>
<svg width="22px" height="16px" viewBox="0 0 22 16" version="1.1" xmlns="http://www.w3.org/2000/svg" xmlns:xlink="http://www.w3.org/1999/xlink">
    <!-- Generator: Sketch 47.1 (45422) - http://www.bohemiancoding.com/sketch -->
    <title>Mask</title>
    <desc>Created with Sketch.</desc>
    <defs>
        <path d="M18.3333333,14 C19.3416667,14 20.1666667,13.1 20.1666667,12 L20.1666667,2 C20.1666667,0.9 19.3416667,0 18.3333333,0 L3.66666667,0 C2.65833333,0 1.83333333,0.9 1.83333333,2 L1.83333333,12 C1.83333333,13.1 2.65833333,14 3.66666667,14 L0,14 L0,16 L22,16 L22,14 L18.3333333,14 Z M3.66666667,2 L18.3333333,2 L18.3333333,12 L3.66666667,12 L3.66666667,2 Z" id="path-1"></path>
    </defs>
    <g id="Icons" stroke="none" stroke-width="1" fill="none" fill-rule="evenodd">
        <g id="extra-/-laptop" transform="translate(-1.000000, -4.000000)">
            <g id="laptop">
                <g id="Icon-🎨" transform="translate(1.000000, 4.000000)">
                    <mask id="mask-2" fill="white">
                        <use xlink:href="#path-1"></use>
                    </mask>
                    <use id="Mask" fill="#001833" fill-rule="nonzero" xlink:href="#path-1"></use>
                </g>
            </g>
        </g>
    </g>
</svg>

<?xml version="1.0" encoding="utf-8"?>
<!-- Generator: Adobe Illustrator 21.1.0, SVG Export Plug-In . SVG Version: 6.00 Build 0)  -->
<svg version="1.1" id="Layer_1" xmlns="http://www.w3.org/2000/svg" xmlns:xlink="http://www.w3.org/1999/xlink" x="0px" y="0px"
	 viewBox="0 0 22 16" style="enable-background:new 0 0 22 16;" xml:space="preserve">
<style type="text/css">
	.st0{fill:#001833;}
</style>
<path id="path-1_1_" class="st0" d="M18.3,14c1,0,1.8-0.9,1.8-2V2c0-1.1-0.8-2-1.8-2H3.7c-1,0-1.8,0.9-1.8,2v10c0,1.1,0.8,2,1.8,2H0
	v2h22v-2H18.3z M3.7,2h14.7v10H3.7V2z"/>
</svg>
